X: 37557
T: Sly Patrick
R: jig
M: 6/8
K: Dmajor
|:(d/e/)|(f>e).d (ed).B|(A3 B2).d|(d>e).f (ag).f|(f3 e2)(d/e/)|
(f>e).d (ed).B|(A3 B2)d|(d>e).f {f}(e2d)|(d3 d2):|
|:f|(f>g).a .a.b.c'|(d'3 c'2).b|(ba).f (f>e).d|{^d}(e3 e2) (=d/e/)|
(f>e).d (ed).B|(A3 B2)d|.d>.e(.f {f}e2)d|d3-d2:|

